X:1
T:Jesu Hail! O God Most Holy
T:Courtesy of the Cyber Hymnal (http://www.cyberhymnal.org)
T:Jesu Hail! O God Most Holy
T:Courtesy of the Cyber Hymnal (http://www.cyberhymnal.org)
Z:Courtesy of the Cyber Hymnal (http://www.cyberhymnal.org)
%%score { ( 1 2 ) ( 3 4 ) }
L:1/8
Q:1/4=113
M:2/4
K:Eb
V:1 treble nm="P1"
V:2 treble 
V:3 bass nm="P2"
V:4 bass 
V:1
"^Editor: John Henry Fowler""^( Revision: 12-1-2007 )" E2 F2 | B2 A2 | G2 F2 | F2 E2 | %4
 F3"^( 1885 )" G | A2 c2 | B2 A2 | A2 G2 | B2 c2 |"^John Stainer" d3"^( 1840 - 1901 )" d | d2 c2 | %11
 B2 =A2 | e2 d2 | c2 B2 | B2 =A2 | G2 G2 | G3 F | E2 E2 | A3 G | G2 F2 | B2 B2 | G2 E2 | d3 B | %23
 B2 A2 | c2 c2 | =B2 c2 | d2 G2 | e2 e2 | e4 | G2 F2 | E4 | e4 | g3 f | e4- | e4 |] %35
V:2
 B,2 D2 | E2 E2 | E2 D2 | D2 E2 | C3 =E | F2 E2 | D2 D2 | D2 E2 | G2 G2 | G3 G | G2 =A2 | G2 ^F2 | %12
 _G2 =G2 | =A2 G2 | G2 ^F2 | G2 G2 | E3 D | C2 C2 | F3 E | E2 D2 | E2 E2 | E2 E2 | E2 =E2 | F4 | %24
 F2 F2 | F2 F2 | F2 F2 | E2 A2 | G4 | E2 D2 | E4 | G4 | B3 A | G4- | G4 |] %35
V:3
 G,2 A,2 | G,2 A,2 | B,2 A,2 | A,2 G,2 | C3 B, | A,2 G,2 | F,2 B,2 | B,2 B,2 | G,2 =A,2 | B,3 B, | %10
 E2 E2 | D2 D2 | C2 D2 | E2 E2 | D3 C | B,2 B,2 | B,3 B, | C2 C2 | C3 C | B,2 B,2 | B,2 B,2 | %21
 C2 C2 | %22
"^1. Jesu hail! O God most holy,Gentle Lamb, an Infant lowly;Born, great God, a human stranger,Laid within the narrow manger:Refrain:   Might transcending, weakness blending,   Greatness bending from the sky;   Love unending, man befriending,   God most High, God most High.2. To enrich my desolation,To redeem me from damnation,Wrapt in swathing bands Thou liest,Thou in want and weakness sighest:Refrain" C2 C2 | %23
 C4 | C2 C2 | D2 C2 | =B,2 B,2 | C2 E2 | %28
"^3. Low abased, where brutes are sleeping,God’s belovèd Son is weeping;Judge supreme, true Godhead sharing,Sinner’s likeness for us wearing!Refrain4. Jesu, Thine my heart is solely;Draw it, take it to Thee wholly;With Thy sacred fire illume me,Let it inwardly consume me.Refrain5. Hence let idle fancies vanish,Hence all evil passions banish;Make me like Thyself in meekness,Bind to Thee my human weakness,Refrain" E4 | %29
 B,2 A,2 | G,4 | E4 | E2 D2 | E4- | E4 |] %35
V:4
 E,2 E,2 | E,2 C,2 | B,,2 B,,2 | C,2 C,2 | A,3 G, | F,2 A,,2 | B,,2 B,,2 | E,2 E,2 | E,2 E,2 | %9
 B,,3 B,, | C,2 C,2 | D,2 D,2 | =A,,2 A,,2 | C,2 C,2 | D,2 D,2 | G,2 G,2 | E,3 E, | A,2 A,2 | %18
 F,2 F,2 | B,2 A,2 | G,2 G,2 | C2 C2 | A,2 G,2 | F,4 | A,2 A,2 | A,2 A,2 | G,2 G,2 | C2 C2 | B,4 | %29
 B,,4 | E,4 | B,4 | B,,4 | E,4- | E,4 |] %35

